X: 1
T: McMahon's
T: The Banshee
M: 4/4
R: Reel
K: G
"G"G3D EDEG|"D"AGAB d2Bd|"C"eged BAGA|"D"BAGE EDDE|
"G"GFGD EDEG|"D"AGAB d2Bd|"C"eged "Am"BAGA|1"D"BAGE EDDE :|2"D"BAGE EDD2||
|:"Am"eaa2 efge|"G"dBBA B2 Bd|"Em"eB (3BBB eBgf|eBBA BAGE|
"Am"eaa2 efge|"G"dBBA B2 Bd|"C"eged "Am"BAGA|"D"BAGE EDD2:|"C"eged "D7"BAGA|"G"G2z2z2z2|]
W:                                                                                                                        last time: long clean break
